_includes/icons/ios-summary-list.svg

<svg fill="#666" height="50" viewBox="0 0 50 50" width="50" xmlns="http://www.w3.org/2000/svg"><path d="m7 2v46h36v-46zm2 2h32v42h-32zm20.984375 4.984375c-.550781.011719-.992187.464844-.984375 1.015625v29c-.003906.359375.183594.695313.496094.878906.3125.179688.695312.179688 1.007812 0 .3125-.183593.5-.519531.496094-.878906v-29c.003906-.269531-.101562-.53125-.292969-.722656-.191406-.191406-.453125-.296875-.722656-.292969zm-15.984375 2.015625c-.359375-.003906-.695312.183594-.878906.496094-.179688.3125-.179688.695312 0 1.007812.183594.3125.519531.5.878906.496094h11c.359375.003906.695313-.183594.878906-.496094.179688-.3125.179688-.695312 0-1.007812-.183593-.3125-.519531-.5-.878906-.496094zm21 0c-.359375-.003906-.695312.183594-.878906.496094-.179688.3125-.179688.695312 0 1.007812.183594.3125.519531.5.878906.496094h1c.359375.003906.695313-.183594.878906-.496094.179688-.3125.179688-.695312 0-1.007812-.183593-.3125-.519531-.5-.878906-.496094zm-21 8c-.359375-.003906-.695312.183594-.878906.496094-.179688.3125-.179688.695312 0 1.007812.183594.3125.519531.5.878906.496094h11c.359375.003906.695313-.183594.878906-.496094.179688-.3125.179688-.695312 0-1.007812-.183593-.3125-.519531-.5-.878906-.496094zm21 0c-.359375-.003906-.695312.183594-.878906.496094-.179688.3125-.179688.695312 0 1.007812.183594.3125.519531.5.878906.496094h1c.359375.003906.695313-.183594.878906-.496094.179688-.3125.179688-.695312 0-1.007812-.183593-.3125-.519531-.5-.878906-.496094zm-21 8c-.359375-.003906-.695312.183594-.878906.496094-.179688.3125-.179688.695312 0 1.007812.183594.3125.519531.5.878906.496094h11c.359375.003906.695313-.183594.878906-.496094.179688-.3125.179688-.695312 0-1.007812-.183593-.3125-.519531-.5-.878906-.496094zm21 0c-.359375-.003906-.695312.183594-.878906.496094-.179688.3125-.179688.695312 0 1.007812.183594.3125.519531.5.878906.496094h1c.359375.003906.695313-.183594.878906-.496094.179688-.3125.179688-.695312 0-1.007812-.183593-.3125-.519531-.5-.878906-.496094zm-21 8c-.359375-.003906-.695312.183594-.878906.496094-.179688.3125-.179688.695312 0 1.007812.183594.3125.519531.5.878906.496094h11c.359375.003906.695313-.183594.878906-.496094.179688-.3125.179688-.695312 0-1.007812-.183593-.3125-.519531-.5-.878906-.496094zm21 0c-.359375-.003906-.695312.183594-.878906.496094-.179688.3125-.179688.695312 0 1.007812.183594.3125.519531.5.878906.496094h1c.359375.003906.695313-.183594.878906-.496094.179688-.3125.179688-.695312 0-1.007812-.183593-.3125-.519531-.5-.878906-.496094z"/></svg>

<svg xmlns="http://www.w3.org/2000/svg" viewBox="0 0 50 50" width="50" height="50" fill="#666"><path d="M 7 2 L 7 48 L 43 48 L 43 2 Z M 9 4 L 41 4 L 41 46 L 9 46 Z M 29.984375 8.984375 C 29.433594 8.996094 28.992188 9.449219 29 10 L 29 39 C 28.996094 39.359375 29.183594 39.695313 29.496094 39.878906 C 29.808594 40.058594 30.191406 40.058594 30.503906 39.878906 C 30.816406 39.695313 31.003906 39.359375 31 39 L 31 10 C 31.003906 9.730469 30.898438 9.46875 30.707031 9.277344 C 30.515625 9.085938 30.253906 8.980469 29.984375 8.984375 Z M 14 11 C 13.640625 10.996094 13.304688 11.183594 13.121094 11.496094 C 12.941406 11.808594 12.941406 12.191406 13.121094 12.503906 C 13.304688 12.816406 13.640625 13.003906 14 13 L 25 13 C 25.359375 13.003906 25.695313 12.816406 25.878906 12.503906 C 26.058594 12.191406 26.058594 11.808594 25.878906 11.496094 C 25.695313 11.183594 25.359375 10.996094 25 11 Z M 35 11 C 34.640625 10.996094 34.304688 11.183594 34.121094 11.496094 C 33.941406 11.808594 33.941406 12.191406 34.121094 12.503906 C 34.304688 12.816406 34.640625 13.003906 35 13 L 36 13 C 36.359375 13.003906 36.695313 12.816406 36.878906 12.503906 C 37.058594 12.191406 37.058594 11.808594 36.878906 11.496094 C 36.695313 11.183594 36.359375 10.996094 36 11 Z M 14 19 C 13.640625 18.996094 13.304688 19.183594 13.121094 19.496094 C 12.941406 19.808594 12.941406 20.191406 13.121094 20.503906 C 13.304688 20.816406 13.640625 21.003906 14 21 L 25 21 C 25.359375 21.003906 25.695313 20.816406 25.878906 20.503906 C 26.058594 20.191406 26.058594 19.808594 25.878906 19.496094 C 25.695313 19.183594 25.359375 18.996094 25 19 Z M 35 19 C 34.640625 18.996094 34.304688 19.183594 34.121094 19.496094 C 33.941406 19.808594 33.941406 20.191406 34.121094 20.503906 C 34.304688 20.816406 34.640625 21.003906 35 21 L 36 21 C 36.359375 21.003906 36.695313 20.816406 36.878906 20.503906 C 37.058594 20.191406 37.058594 19.808594 36.878906 19.496094 C 36.695313 19.183594 36.359375 18.996094 36 19 Z M 14 27 C 13.640625 26.996094 13.304688 27.183594 13.121094 27.496094 C 12.941406 27.808594 12.941406 28.191406 13.121094 28.503906 C 13.304688 28.816406 13.640625 29.003906 14 29 L 25 29 C 25.359375 29.003906 25.695313 28.816406 25.878906 28.503906 C 26.058594 28.191406 26.058594 27.808594 25.878906 27.496094 C 25.695313 27.183594 25.359375 26.996094 25 27 Z M 35 27 C 34.640625 26.996094 34.304688 27.183594 34.121094 27.496094 C 33.941406 27.808594 33.941406 28.191406 34.121094 28.503906 C 34.304688 28.816406 34.640625 29.003906 35 29 L 36 29 C 36.359375 29.003906 36.695313 28.816406 36.878906 28.503906 C 37.058594 28.191406 37.058594 27.808594 36.878906 27.496094 C 36.695313 27.183594 36.359375 26.996094 36 27 Z M 14 35 C 13.640625 34.996094 13.304688 35.183594 13.121094 35.496094 C 12.941406 35.808594 12.941406 36.191406 13.121094 36.503906 C 13.304688 36.816406 13.640625 37.003906 14 37 L 25 37 C 25.359375 37.003906 25.695313 36.816406 25.878906 36.503906 C 26.058594 36.191406 26.058594 35.808594 25.878906 35.496094 C 25.695313 35.183594 25.359375 34.996094 25 35 Z M 35 35 C 34.640625 34.996094 34.304688 35.183594 34.121094 35.496094 C 33.941406 35.808594 33.941406 36.191406 34.121094 36.503906 C 34.304688 36.816406 34.640625 37.003906 35 37 L 36 37 C 36.359375 37.003906 36.695313 36.816406 36.878906 36.503906 C 37.058594 36.191406 37.058594 35.808594 36.878906 35.496094 C 36.695313 35.183594 36.359375 34.996094 36 35 Z"/></svg>
